packages/kaspersky-hexa-ui-icons/src/iconsSVGs/16/ArrowRight2.svg

<svg width="16" height="16" viewBox="0 0 16 16" fill="none" xmlns="http://www.w3.org/2000/svg">
<path d="M9.5404 2.45972C9.28656 2.20588 9.28656 1.79432 9.5404 1.54048C9.79424 1.28664 10.2058 1.28664 10.4596 1.54048L13.793 4.87381C14.0468 5.12765 14.0468 5.53921 13.793 5.79305L10.4596 9.12638C10.2058 9.38022 9.79424 9.38022 9.5404 9.12638C9.28656 8.87254 9.28656 8.46099 9.5404 8.20714L11.7641 5.98343H8.00001C5.78167 5.98343 3.98335 7.78175 3.98335 10.0001V14.0001C3.98335 14.3591 3.69233 14.6501 3.33335 14.6501C2.97436 14.6501 2.68335 14.3591 2.68335 14.0001V10.0001C2.68335 7.06378 5.0637 4.68343 8.00001 4.68343H11.7641L9.5404 2.45972Z" fill="black"/>
</svg>

<svg xmlns="http://www.w3.org/2000/svg" width="16" height="16" fill="none" viewBox="0 0 16 16"><path fill="#000" d="M9.5404 2.4597a.65.65 0 0 1 .9192-.9192l3.3334 3.3333a.65.65 0 0 1 0 .9192l-3.3334 3.3334a.65.65 0 1 1-.9192-.9193l2.2237-2.2237h-3.764c-2.2184 0-4.0167 1.7984-4.0167 4.0167v4a.65.65 0 1 1-1.3 0v-4c0-2.9363 2.3803-5.3167 5.3166-5.3167h3.7641z"/></svg>
